resources/svg/map-pin-add-line.svg

<svg fill="currentColor" viewBox="0 0 24 24" xmlns="http://www.w3.org/2000/svg"><path d="M12 20.8995L16.9497 15.9497C19.6834 13.2161 19.6834 8.78392 16.9497 6.05025C14.2161 3.31658 9.78392 3.31658 7.05025 6.05025C4.31658 8.78392 4.31658 13.2161 7.05025 15.9497L12 20.8995ZM12 23.7279L5.63604 17.364C2.12132 13.8492 2.12132 8.15076 5.63604 4.63604C9.15076 1.12132 14.8492 1.12132 18.364 4.63604C21.8787 8.15076 21.8787 13.8492 18.364 17.364L12 23.7279ZM11 10V7H13V10H16V12H13V15H11V12H8V10H11Z"/></svg>

<svg xmlns="http://www.w3.org/2000/svg" viewBox="0 0 24 24" fill="currentColor">
    <g>
        <path fill="none" d="M0 0h24v24H0z"/>
        <path d="M12 20.9l4.95-4.95a7 7 0 1 0-9.9 0L12 20.9zm0 2.828l-6.364-6.364a9 9 0 1 1 12.728 0L12 23.728zM11 10V7h2v3h3v2h-3v3h-2v-3H8v-2h3z"/>
    </g>
</svg>
